X: 40405
T: Tom Lord's
R: polka
M: 2/4
K: Adorian
A/B/|:cA eA/B/|cA Ac|BG dG|BG GA/B/|
[1 cA eA/B/|cA Ac|BG (3EFG|A2 A2:|
[2 (3ABc Bd|ce dg|ea gb|a2 ab||
|:c'e'/c'/ ba|ge ef|ge dc|BG GA/B/|
[1 c'a a/b/a/f/|ge ed|ea gb|a2 ab:|
[2 Ac Bd|ce (3deg|ea gb|a2 a||

